X:1
T:Title
%%score [ ( 1 2 ) ( 3 4 ) ] { ( 5 6 ) | 7 }
L:1/8
Q:1/4=120
M:4/4
K:Ab
V:1 treble nm="Midi_74"
V:2 treble 
V:3 bass nm="Midi_74"
V:4 bass 
V:5 treble nm="Org." snm="Org."
V:6 treble 
V:7 bass 
V:1
"^Double counterpoint. Major""^b" F8 | B4 A4 | G8 || F8 | G4 A4 | B4 B4 | A8 || A8 | G4 F4 | B8 || %10
 A8 | G4 F4 |"^William Henry Havergal\n(1793-1870)" G4 G4 | F8 |][K:F] F8 | %15
"^As suggested by Havergal, a version in F major." B4 A4 | G8 || F8 | G4 A4 | B4 B4 | A8 || A8 | %22
 G4 F4 | B8 || A8 | G4 F4 | G4 G4 | F8 |] %28
V:2
 F8 | =E4 F4 | =E8 || F8 | =E4 F4 | F4 =E4 | F8 || F8 | =E4 F4 |{F} =E8 || F8 | =E4 F4 | F4 =E4 | %13
 F8 |][K:F] F8 | E4 F4 | E8 || F8 | E4 F4 | F4 E4 | F8 || F8 | E4 F4 |{F} E8 || F8 | E4 F4 | %26
 F4 E4 | F8 |] %28
V:3
 C8 | C4 C4 | C8 || C8 | C4 C4 | B,4 B,4 | C8 || C8 | C4 C4 | B,8 || C8 | C4 C4 | D4 (C2 B,2) | %13
 A,8 |][K:F] C8 | C4 C4 | C8 || C8 | C4 C4 | B,4 B,4 | C8 || C8 | C4 C4 | B,8 || C8 | C4 C4 | %26
 D4 (C2 B,2) | A,8 |] %28
V:4
 A,8 | G,4 F,4 | B,8 || A,8 | G,4 F,4 | G,4 G,4 | F,8 || F,8 | B,4 A,4 | G,8 || F,8 | G,4 A,4 | %12
 B,4 (C2 C,2) | F,8 |][K:F] A,8 | G,4 F,4 | B,8 || A,8 | G,4 F,4 | G,4 G,4 | F,8 || F,8 | B,4 A,4 | %23
 G,8 || F,8 | G,4 A,4 | B,4 (C2 C,2) | F,8 |] %28
V:5
 F8 | B4 A4 | G8 || F8 | G4 A4 | B4 B4 | A8 || A8 | G4 F4 | [B,B]8 || A8 | G4 F4 | G4 G4 | F8 |] %14
[K:F] F8 | B4 A4 | G8 || F8 | G4 A4 | B4 B4 | A8 || A8 | G4 F4 | [B,B]8 || A8 | G4 F4 | G4 G4 | %27
 F8 |] %28
V:6
 [CF]8 | [C=E]4 [CF]4 | [C=E]8 || [CF]8 | [C=E]4 [CF]4 | [B,F]4 [B,=E]4 | [CF]8 || [CF]8 | %8
 [C=E]4 C4 | F4 =E4 || [CF]8 | [C=E]4 C4 | [DF]4 [C=E]4 | [A,F]8 |][K:F] [CF]8 | [CE]4 [CF]4 | %16
 [CE]8 || [CF]8 | [CE]4 [CF]4 | [B,F]4 [B,E]4 | [CF]8 || [CF]8 | [CE]4 C4 | F4 E4 || [CF]8 | %25
 [CE]4 C4 | [DF]4 [CE]4 | [A,F]8 |] %28
V:7
 A,8 | G,4 F,4 | B,8 || A,8 | G,4 F,4 | G,4 G,4 | F,8 || F,8 | B,4 A,4 | G,8 || F,8 | G,4 A,4 | %12
 B,4 C2 C,2 | F,8 |][K:F] A,8 | G,4 F,4 | B,8 || A,8 | G,4 F,4 | G,4 G,4 | F,8 || F,8 | B,4 A,4 | %23
 G,8 || F,8 | G,4 A,4 | B,4 C2 C,2 | F,8 |] %28

